!!!!SEGMENT: pl-sa--8-a-i-8_kuttricz-lania--dix-variation.krn
!!!cenid: 17xx:683
!!!COM: Kuttricz, Lania
!!!COM-rismID: pe41021473
!!!CDT:
!!!CNT:
!!!OTL: Dix variation
!!!PDT:
!!!AGN: Secular; Variations
!!!SMS-siglum: PL-SA
!!!SMS-shelfmark: 8/A I 8
!!!SMS-shelfwork: W
!!!SMS-variant:
!!!SMS-altvar:
!!!NIFC-rismSourceID: 1001065408
!!!NIFC-islandoraID:
!!!URL-pdf-islandora:
!!!URL-scan: https://bc.bdsandomierz.pl/dlibra/publication/1267/edition/1235/content @EN{Scan on Cyfrowa Biblioteka Diecezjalna w Sandomierzu} @PL{Skany w portalu Cyfrowa Biblioteka Diecezjalna w Sandomierzu}
!!!ONB-nifc: UWAGA: niezidentyfikowane utwory użyte jako okładka. Początek utworu: Allegro con variatione. Thema
!!!AIN: 1 empty 1 forte
!!!key:
**kern	**dynam	**kern	**dynam
*part2	*part2	*part1	*part1
*staff2	*	*staff1	*
*Iempty	*	*Iforte	*
*	*	*I"Piano Forte	*
*group1	*	*group1	*
*clefF4	*	*clefG2	*
*Trd0c0	*	*	*
*k[]	*	*k[]	*
*a:	*	*a:	*
*M2/4	*	*M2/4	*
*>[A,A,B,B,C,C,D,D,E,E,F,F,G,G,H,H,I,I,J,J,K,K,L,L,M,M,N,N,O,O,P,P,R,R,R1,S,S,T,T,U,U,W]	*	*>[A,A,B,B,C,C,D,D,E,E,F,F,G,G,H,H,I,I,J,J,K,K,L,L,M,M,N,N,O,O,P,P,R,R,R1,S,S,T,T,U,U,W]	*
=1	=1	=1	=1
*2\right	*	*2\right	*
*>A	*	*>A	*
!	!	!LO:TX:a:t=Thema	!
!LO:TX:t=P:problem=mixed beam	!	!LO:TX:a:t=Allegretto Con Variatione	!
8C/L	.	4a\	.
8c\J	.	.	.
!LO:TX:t=P:problem=mixed beam	!	!	!
8C/L	.	8cc\L	.
8c\J	.	8a\J	.
=2	=2	=2	=2
!LO:TX:t=P:problem=mixed beam	!	!	!
8AA/L	.	8ee\L	.
8c\J	.	8dd\	.
8E\L	.	8cc\	.
8c\J	.	8b\J	.
=3	=3	=3	=3
4E\ 4B 4d	.	8g#X\L	.
.	.	8a\	.
4E\ 4B 4d	.	8b\	.
.	.	8g#\J	.
=4	=4	=4	=4
4A\ 4c	.	16a/LL	.
.	.	16g#X/	.
.	.	16a/	.
.	.	16b/JJ	.
4r	.	8a/L	.
.	.	8e/J	.
=5	=5	=5	=5
!LO:TX:t=P:problem=mixed beam	!	!	!
8AA/L	.	4a\	.
8c\J	.	.	.
8E/L	.	8cc\L	.
8c\J	.	8a\J	.
=6	=6	=6	=6
!LO:TX:t=P:problem=mixed beam	!	!	!
8AA/L	.	8ee\L	.
8c\J	.	8cc\	.
8E\L	.	8b\	.
8c\J	.	8a\J	.
=7	=7	=7	=7
!	!	!LO:TX:t=P:problem=mixed beam	!
4E\ 4B 4d	.	8g#X\L	.
.	.	8b\	.
4E\ 4B 4d	.	8ee\	.
.	.	8g#/J	.
=8	=8	=8	=8
4A\ 4c	.	4a/	.
4r	.	4r	.
!LO:LB:g=original	!	!LO:LB:g=original	!
=9:|!|:;	=9:|!|:	=9:|!|:;	=9:|!|:
*>B	*	*>B	*
!LO:TX:t=P:problem=mixed beam	!	!	!LO:DY:b:t=f.
8C/L 8/E	.	4cc\	f
8e\J	.	.	.
8G\L	.	8.ee\L	.
8e\J	.	.	.
.	.	16cc\Jk	.
=10	=10	=10	=10
!LO:TX:t=P:problem=mixed beam	!	!	!
8C/L	.	4.gg\	.
8e\J	.	.	.
8G\L	.	.	.
8e\J	.	8ee\	.
=11	=11	=11	=11
8G\L	.	8dd\L	.
8d\J	.	8dd\J	.
8B\L	.	8gg\L	.
8d\J	.	8ff\J	.
=12	=12	=12	=12
8G#X\L	.	8ee\L	.
8B\ 8d	.	8dd\	.
8G#\	.	8cc\	.
8B\J 8d	.	8b\J	.
=13	=13	=13	=13
!LO:TX:t=P:problem=mixed beam	!	!	!
8AA/L	.	4a\	.
8c\J	.	.	.
8E\L	.	8cc\L	.
8c\J	.	8a\J	.
=14	=14	=14	=14
!LO:TX:t=P:problem=mixed beam	!	!	!
8AA/L	.	8ee\L	.
8c\J	.	8cc\	.
8E\L	.	8b\	.
8c\J	.	8a\J	.
=15	=15	=15	=15
!	!	!LO:TX:t=P:problem=mixed beam	!
4E\ 4B 4d	.	8g#X\L	.
.	.	8b\	.
4E\ 4B 4d	.	8ee\	.
.	.	8g#/J	.
=16	=16	=16	=16
4A\ 4c	.	4a/	.
4r	.	4r	.
!LO:LB:g=original	!	!LO:LB:g=original	!
=17:|!;	=17:|!	=17:|!;	=17:|!
*>C	*	*>C	*
*M2/4	*	*M2/4	*
*	*	*Xtuplet	*
!	!	!LO:TX:a:t=P:global:problem=brak oznaczenia trioli	!
!	!	!LO:TX:a:t=Var&colon; 1mo	!
4AA/ 4C 4E	.	12A/L	.
.	.	12c/	.
.	.	12e/J	.
4r	.	12a\L	.
.	.	12cc\	.
.	.	12ee\J	.
=18	=18	=18	=18
!	!	!	!LO:DY:b:t=p.
4r	.	12aa\L	p
.	.	12ee\	.
.	.	12dd\J	.
4A\ 4c 4e	.	12cc\L	.
.	.	12b\	.
.	.	12a\J	.
=19	=19	=19	=19
!LO:TX:a:t=P:problem= [d e] zapisane na górnej pięciolinii	!	!	!
4B\ 4d 4e	.	12g#X/L	.
.	.	12a/	.
.	.	12b/J	.
4E\ 4B 4d	.	(12e/L	.
.	.	12f#X/	.
.	.	12g#X/J)	.
=20	=20	=20	=20
4A\ 4c	.	(16a/LL	.
.	.	16g#X/	.
.	.	16a/	.
.	.	16b/JJ)	.
4r	.	8a/L	.
.	.	8e/J	.
=21	=21	=21	=21
*^	*	*	*
4E/	4AA\ 4C	.	12A/L	.
.	.	.	12c/	.
.	.	.	12e/J	.
4re	4rCCyy	.	12a\L	.
.	.	.	12cc\	.
.	.	.	12ee\J	.
*v	*v	*	*	*
=22	=22	=22	=22
4r	.	12aa\L	.
.	.	12ee\	.
.	.	12dd\J	.
4A\ 4c 4e	.	12cc\L	.
.	.	12b\	.
.	.	12a\J	.
!LO:LB:g=original	!	!LO:LB:g=original	!
=23	=23	=23	=23
!LO:TX:a:t=P:problem= [d e] zapisane na górnej pięciolinii	!	!	!
4B\ 4d 4e	.	12g#X/L	.
.	.	12dd#X/	.
.	.	12ee/J	.
4B\ 4d	.	12e/L	.
.	.	12f#X/	.
.	.	12g#X/J	.
=24	=24	=24	=24
4A\ 4c	.	4a/	.
4r	.	4r	.
=25:|!|:	=25:|!|:	=25:|!|:	=25:|!|:
*>D	*	*>D	*
4C\ 4E 4G	.	12c/L	.
.	.	12e/	.
.	.	12g/J	.
4r	.	12cc\L	.
.	.	12ee\	.
.	.	12gg\J	.
=26	=26	=26	=26
4r	.	12ccc\L	.
.	.	12gg\	.
.	.	12ff\J	.
4C\ 4E 4G	.	12ee\L	.
.	.	12dd\	.
.	.	12cc\J	.
=27	=27	=27	=27
!	!	!LO:TX:t=P:problem=mixed beam	!
4GG/ 4D 4F	.	12b/L	.
.	.	12fff\	.
.	.	12ddd\J	.
4r	.	12bb\L	.
.	.	12gg#X\	.
.	.	12ff#X\J	.
=28	=28	=28	=28
4r	.	12dd\L	.
.	.	12b\	.
.	.	12g#X\J	.
4GG#X/ 4D 4F	.	12f/L	.
.	.	12d/	.
.	.	12B/J	.
=29	=29	=29	=29
4AA/ 4C 4E	.	12A/L	.
.	.	12c/	.
.	.	12e/J	.
4r	.	12a\L	.
.	.	12cc\	.
.	.	12ee\J	.
=30	=30	=30	=30
4r	.	12aa\L	.
.	.	12ee\	.
.	.	12dd\J	.
4A\ 4c 4e	.	12cc\L	.
.	.	12b\	.
.	.	12a\J	.
=31	=31	=31	=31
!LO:TX:a:t=P:problem= [d e] zapisane na górnej pięciolinii	!	!	!
4B\ 4d 4e	.	12g#X/L	.
.	.	12dd#X/	.
.	.	12ee/J	.
4E\ 4B 4d	.	12e/L	.
.	.	12f#X/	.
.	.	12g#X/J	.
=32	=32	=32	=32
!LO:TX:a:t=P:problem=plama na nutach	!	!	!
4A\ 4c	.	4a/	.
4r	.	4r	.
!LO:PB:g=original	!	!LO:PB:g=original	!
=33||;	=33||	=33||;	=33||
*M2/4	*	*M2/4	*
*>E	*	*>E	*
!	!	!LO:TX:a:t=Var&colon; 2do	!LO:DY:b:t=p.
4r	.	8a\L 8cc	p
.	.	8b\J 8dd	.
=34	=34	=34	=34
!	!	!	!LO:DY:b:t=fp&colon;
4r	.	8b\L 8dd#X	fp
.	.	8cc\J 8ee	.
8D#X\L 8d#X	.	4r	.
8E\J 8e	.	.	.
=35	=35	=35	=35
8GG#X\L 8G#X	.	4r	.
8AA\J 8A	.	.	.
4r	.	8g#X\L 8b	.
.	.	8a\J 8cc	.
=36	=36	=36	=36
!	!	!	!LO:DY:b:t=fp.
4r	.	8a#X\L 8cc#X	fp
.	.	8b\J 8dd	.
8AA#X\L 8A#X	.	4r	.
8BB\J 8B	.	.	.
=37	=37	=37	=37
8DD#X/L 8D#X	.	4r	.
8EE/J 8E	.	.	.
4r	.	8dd\L 8ff	.
.	.	8b\J 8dd	.
=38	=38	=38	=38
!	!	!	!LO:DY:b:t=fp&colon;
4r	.	8g#X\L 8b	fp
.	.	8a\J 8cc	.
8GG#X\L 8G#X	.	8cc\L 8ee	.
8AA\J 8A	.	8a\J 8cc	.
=39	=39	=39	=39
!	!	!	!LO:DY:b:t=fp&colon;
4r	.	8f\L 8a#X	fp
.	.	8g#X\J 8b	.
8DD#X/L 8D#X	.	8b\L 8dd	.
8EE/J 8E	.	8g#\J 8b	.
=40	=40	=40	=40
8GG#X\L 8G#X	.	8g#X/L	.
8AA\J 8A	.	8a/J	.
8DD#X/L 8D#X	.	8dd#X\L 8ddd#X	fp
8EE/J 8E	.	8ee\J 8eee	.
=41	=41	=41	=41
8GG#X/L	.	8g#X\L 8gg#X	.
8AA/J	.	8a\J 8aa	.
4r	.	4r	.
!LO:LB:g=original	!	!LO:LB:g=original	!
=42:|!|:;	=42:|!|:	=42:|!|:;	=42:|!|:
*>F	*	*>F	*
4r	.	8cc\L 8ee	.
.	.	8dd\J 8ff	.
=43	=43	=43	=43
4r	.	8dd#X\L 8ff#X	.
.	.	8ee\J 8gg	.
8D#X\L 8d#X	.	4r	.
8E\J 8e	.	.	.
=44	=44	=44	=44
8BB\L 8B	.	4r	.
8C\J 8c	.	.	.
4r	.	8b\L 8dd	.
.	.	8cc\J 8ee	.
=45	=45	=45	=45
4r	.	8cc#X\L 8ee	.
.	.	8dd\J 8ff	.
8C#X\L 8c#X	.	4r	.
8D\J 8d	.	.	.
=46	=46	=46	=46
8GG/L 8G	.	4r	.
8AA#X/J 8G#X	.	.	.
4r	.	8dd\L 8ff	.
.	.	8b\J 8dd	.
=47	=47	=47	=47
4r	.	8g#X\L 8b	.
.	.	8a\J 8cc	.
8GG#X\L 8G#X	.	8cc\L 8ee	.
8AA\J 8A	.	8a\J 8cc	.
=48	=48	=48	=48
4r	.	8f/L 8a#X	.
.	.	8g#X/J 8b	.
8DD#X/L 8D#X	.	8b\L 8dd	.
8EE/J 8E	.	8g#\J 8b	.
=49	=49	=49	=49
8GG#X\L 8G#X	.	8g#X/L	.
8AA\J 8A	.	8a/J	.
8DD#X/L 8D#X	.	8dd#X\L 8ddd#X	.
8EE/J 8E	.	8ee\J 8eee	.
=50	=50	=50	=50
8GG#X/L	.	8g#X\L 8gg#X	.
8AA/J	.	8a\J 8aa	.
4r	.	4r	.
=51:|!;	=51:|!	=51:|!;	=51:|!
*M2/4	*	*M2/4	*
*>G	*	*>G	*
!	!	!LO:TX:a:t=Var&colon; 3	!
4AA\ 4C 4E 4A	.	8a\L 8cc 8ee 8aa	.
.	.	16qqb/	.
.	.	16a\L	.
.	.	16g#X\JJ	.
4r	.	16a\LL	.
.	.	16b\	.
.	.	16cc\	.
.	.	16dd\JJ	.
=52	=52	=52	=52
4c\ 4e	.	16dd#X\LL	.
.	.	16ee\	.
.	.	16ff\	.
.	.	16ee\JJ	.
4A\ 4c	.	16dd#X\LL	.
.	.	16cc\	.
.	.	16b\	.
.	.	16a\JJ	.
=53	=53	=53	=53
8E\L 8G#X 8B 8c 8e	.	4g#X/	.
16qqF/	.	.	.
16E\L	.	.	.
16D#X\JJ	.	.	.
16E\LL	.	4r	.
16F#X\	.	.	.
16G#\	.	.	.
16A\JJ	.	.	.
=54	=54	=54	=54
!	!	!	!LO:DY:b:t=p.
16A#X\LL	.	4b\ 4dd	p
16B\	.	.	.
16c\	.	.	.
16B\JJ	.	.	.
16A#X\LL	.	4g#X/	.
16G#X\	.	.	.
16F#X\	.	.	.
16E\JJ	.	.	.
!LO:TX:a:t=[segno]	!	!LO:TX:a:t=[segno]	!
=55	=55	=55	=55
!	!	!	!LO:DY:b:t=fr&colon;
4A\	.	8a\L 8cc 8ee 8aa	f
.	.	16qqb/	.
.	.	16a\L	.
.	.	16g#X\JJ	.
4r	.	16a\LL	.
.	.	16b\	.
.	.	16cc\	.
.	.	16dd\JJ	.
=56	=56	=56	=56
!	!LO:DY:b:t=p&colon;	!	!
4c\ 4e	p	16dd#X\LL	.
.	.	16ee\	.
.	.	16ff\	.
.	.	16ee\JJ	.
4A\ 4c	.	16ddn\LL	.
.	.	16cc\	.
.	.	16b\	.
.	.	16a\JJ	.
!LO:LB:g=original	!	!LO:LB:g=original	!
=57	=57	=57	=57
8E\L 8c 8e	.	8g#X/	.
16E\L	.	4e/ 4ee	.
16F#X\JJ	.	.	.
16G#X\LL	.	.	.
16E\	.	.	.
16F#\	.	8g#/	.
16G#\JJ	.	.	.
=58	=58	=58	=58
!	!	!	!LO:DY:b:t=fr.
8A\L	.	8a/L	f
16C\L	.	16c/L	.
16D\JJ	.	16d/JJ	.
16E\LL	.	16e/LL	.
16D\	.	16d/	.
16C\	.	16c/	.
16BB\JJ	.	16B/JJ	.
=59	=59	=59	=59
4AA/	.	4A/	.
4r	.	4r	.
=60:|!|:;	=60:|!|:	=60:|!|:;	=60:|!|:
*>H	*	*>H	*
4C\ 4E 4G 4c	.	8cc\L 8ee 8gg 8aa 8ccc	.
.	.	16qqdd/	.
.	.	16cc\L	.
.	.	16b\JJ	.
4r	.	16cc\LL	.
.	.	16dd\	.
.	.	16ee\	.
.	.	16ff\JJ	.
*clefG2	*	*	*
=61	=61	=61	=61
4e/ 4g	.	16ff#X\LL	.
.	.	16gg\	.
.	.	16aa\	.
.	.	16gg\JJ	.
4e/	.	16ffn\LL	.
.	.	16ee\	.
.	.	16dd\	.
.	.	16cc\JJ	.
*clefF4	*	*	*
=62	=62	=62	=62
8G\L 8d 8e 8g	.	4b/	.
16qqA/	.	.	.
16G\L	.	.	.
16F#X\JJ	.	.	.
16G\LL	.	4r	.
16A\	.	.	.
16B\	.	.	.
16c\JJ	.	.	.
=63	=63	=63	=63
16c#X\LL	.	4dd\ 4ff	.
16d\	.	.	.
16e\	.	.	.
16d\JJ	.	.	.
!	!	!LO:TX:b:t=al segno	!
16cn\LL	.	4b\ 4dd	.
16B\	.	.	.
16A\	.	.	.
16G#X\JJ	.	.	.
!LO:TX:a:t=[segno]	!	!LO:TX:a:t=[segno]	!
!LO:PB:g=original	!	!LO:PB:g=original	!
=64||	=64||	=64||	=64||
*M2/4	*	*M2/4	*
!	!	!LO:TX:b:t=Agitato	!
!	!	!LO:TX:a:t=Var&colon; 4	!
!	!	!	!LO:DY:b:t=f&colon;
4.AA/ 4.A	.	8r	f
.	.	8a\ 8cc 8aa	.
!	!	!LO:TX:a:t=P:problem= 4. przez kreskę	!
!	!	!LO:N:vis=4.	!
.	.	4cc\ 4ee 4aa 4ccc	.
8EE/ 8C 8E	.	.	.
=65	=65	=65	=65
4.EE/ 4.C 4.E	.	8cc\yy 8eeyy 8aayy 8cccyy	.
.	.	8ee\L 8aa 8ccc 8eee	.
.	.	8dd\ 8bb 8ddd	.
8EE/ 8E	.	8cc\J 8aa 8ccc	.
=66	=66	=66	=66
4.BB/ 4.B	.	8r	.
.	.	8b\ 8dd 8bb	.
.	.	4dd\ 4ff 4ddd	.
8GG#X/ 8G#X	.	.	.
=67	=67	=67	=67
!	!	!LO:N:xstem:cue	!
4.EE/ 4.E	.	8dd\ 8ff 8ddd	.
.	.	8ff\L 8ddd 8fff	.
.	.	8ee\ 8aa 8eee	.
8GG#X/ 8G#X	.	8dd\J 8bb 8ddd	.
=68	=68	=68	=68
4.AA/ 4.A	.	8r	.
.	.	8a\ 8cc 8aa	.
.	.	4cc\ 4ee 4ccc	.
8EE/ 8E	.	.	.
=69	=69	=69	=69
!	!	!LO:N:xstem:cue	!
4.CC/ 4.C	.	8cc\ 8ee 8ccc	.
.	.	8cc\L 8aa 8ccc	.
.	.	8dd\ 8bb 8ddd	.
8EE/ 8E	.	8cc\J 8aa 8ccc	.
=70	=70	=70	=70
4FF/ 4F	.	8r	.
.	.	8b\L 8dd 8bb	.
8DD/L 8D	.	8dd\ 8ff 8ddd	.
8EE/J 8E	.	8g#X\J 8b 8gg#X	.
=71	=71	=71	=71
4AA/ 4A	.	4a\ 4cc 4aa	.
4r	.	4r	.
!LO:LB:g=original	!	!LO:LB:g=original	!
=72:|!|:;	=72:|!|:	=72:|!|:;	=72:|!|:
4.C\ 4.c	.	8r	.
.	.	8e\ 8cc 8ee	.
.	.	4g\ 4ee 4gg	.
8GG/ 8G	.	.	.
=73	=73	=73	=73
!	!	!LO:N:xstem:cue	!
4.EE/ 4.E	.	8g\ 8ee 8gg	.
.	.	8ee\L 8gg 8eee	.
.	.	8dd\ 8ff 8ddd	.
8GG/ 8G	.	8cc\J 8ee 8ccc	.
=74	=74	=74	=74
4.D\ 4.d	.	8r	.
.	.	8b\ 8dd 8bb	.
!	!	!LO:TX:a:t=P:problem= 4. przez kreskę	!
!	!	!LO:N:vis=4.	!
.	.	4dd\ 4ff 4ddd	.
8BB/ 8B	.	.	.
=75	=75	=75	=75
4.GG#X/ 4.G#X	.	8dd\yy 8ff 8ddd	.
.	.	8ff\L 8ddd 8fff	.
.	.	8ee\ 8ccc 8eee	.
8EE/ 8E	.	8dd\J 8ddd	.
=76	=76	=76	=76
4.AA/ 4.A	.	8r	.
.	.	8cc\ 8ee 8aa	.
.	.	4cc\ 4ee 4ccc	.
8EE/ 8E	.	.	.
=77	=77	=77	=77
!	!	!LO:N:xstem:cue	!
4.CC/ 4.C	.	8cc\ 8ee 8ccc	.
.	.	8ee\L 8aa 8ccc	.
.	.	8dd\ 8bb 8ddd	.
8EE/ 8E	.	8cc\J 8aa 8ccc	.
=78	=78	=78	=78
4FF/ 4F	.	8r	.
.	.	8b\L 8dd 8bb	.
8DD/L 8D	.	8dd\ 8ff 8ddd	.
8EE/J 8E	.	8g#X\J 8b 8gg#X	.
=79	=79	=79	=79
4AA/ 4A	.	4a\ 4cc 4aa	.
4r	.	4r	.
=80:|!	=80:|!	=80:|!	=80:|!
*M2/4	*	*M2/4	*
*>I	*	*>I	*
!	!	!LO:TX:a:t=Sempre Legato e piano.	!
!	!	!LO:TX:a:t=Var&colon; 5	!LO:DY:b:t=fp&colon;
16A\LL	.	16r	fp
16c\	.	16ee\LL	.
16e\	.	16dd#X\	.
16c\JJ	.	16ee\JJ	.
*rep	*	*	*
16A\LL	.	16ddn\LL	.
16c\	.	16cc\	.
16e\	.	16b\	.
16c\JJ	.	16a\JJ	.
*Xrep	*	*	*
=81	=81	=81	=81
16B\LL	.	16r	fp
16d\	.	16ff\LL	.
16f\	.	16ee\	.
16d\JJ	.	16ff\JJ	.
*rep	*	*	*
16B\LL	.	16ee\LL	.
16d\	.	16dd\	.
16f\	.	16cc\	.
16d\JJ	.	16b\JJ	.
*Xrep	*	*	*
=82	=82	=82	=82
!	!	!	!LO:DY:b:t=fp.
16A\LL	.	16r	fp
16c\	.	16ee\LL	.
16e\	.	16dd#X\	.
16c\JJ	.	16ee\JJ	.
*rep	*	*	*
16A\LL	.	16ddn\LL	.
16c\	.	16cc\	.
16e\	.	16b\	.
16c\JJ	.	16a\JJ	.
*Xrep	*	*	*
=83	=83	=83	=83
!	!	!	!LO:DY:b:t=fp&colon;
16E\LL	.	16r	fp
16G#X\	.	16b/LL	.
16B\	.	16a#X/	.
16G#\JJ	.	16b/JJ	.
*rep	*	*	*
16E\LL	.	16an/LL	.
16G#\	.	16g#X/	.
16B\	.	16f#X/	.
16G#\JJ	.	16e/JJ	.
*Xrep	*	*	*
=84	=84	=84	=84
!	!	!	!LO:DY:b:t=fp&colon;
16A\LL	.	16r	fp
16c\	.	16ee\LL	.
16e\	.	16dd#X\	.
16c\JJ	.	16ee\JJ	.
*rep	*	*	*
16A\LL	.	16ddn\LL	.
16c\	.	16cc\	.
16e\	.	16b\	.
16c\JJ	.	16a\JJ	.
*Xrep	*	*	*
=85	=85	=85	=85
16B\LL	.	16r	.
16d\	.	16ff\LL	.
16f\	.	16ee\	.
16d\JJ	.	16ff\JJ	.
*rep	*	*	*
16B\LL	.	16ee\LL	.
16d\	.	16dd\	.
16f\	.	16cc\	.
16d\JJ	.	16b\JJ	.
*Xrep	*	*	*
=86	=86	=86	=86
16A\LL	.	16r	.
16c\	.	16ee\LL	.
16e\	.	16dd#X\	.
16c\JJ	.	16ee\JJ	.
16E\LL	.	16r	.
16B\	.	16ee\LL	.
16e\	.	16dd#\	.
16B\JJ	.	16ee\JJ	.
=87	=87	=87	=87
16A\LL	.	16a\LL	.
16c\	.	16cc\	.
16e\	.	16ee\	.
16c\JJ	.	16cc\JJ	.
8A\	.	8a/	.
8r	.	8r	.
!LO:LB:g=original	!	!LO:LB:g=original	!
=88:|!|:;	=88:|!|:	=88:|!|:;	=88:|!|:
*>J	*	*>J	*
16c\LL	.	16r	.
16e\	.	16gg\LL	.
16g\	.	16ff#X\	.
16e\JJ	.	16gg\JJ	.
*rep	*	*	*
16c\LL	.	16ffn\LL	.
16e\	.	16ee\	.
16g\	.	16dd\	.
16e\JJ	.	16cc\JJ	.
*Xrep	*	*	*
=89	=89	=89	=89
16B\LL	.	16r	.
16d\	.	16aa\LL	.
16f\	.	16gg#X\	.
16d\JJ	.	16aa\JJ	.
*rep	*	*	*
16B\LL	.	16ggn\LL	.
16d\	.	16ff\	.
16f\	.	16ee\	.
16d\JJ	.	16dd\JJ	.
*Xrep	*	*	*
=90	=90	=90	=90
16c\LL	.	16r	.
16e\	.	16gg\LL	.
16g\	.	16ff#X\	.
16e\JJ	.	16gg\JJ	.
*rep	*	*	*
16c\LL	.	16ffn\LL	.
16e\	.	16ee\	.
16g\	.	16dd\	.
16e\JJ	.	16cc\JJ	.
*Xrep	*	*	*
=91	=91	=91	=91
16G#X\LL	.	16r	.
16d\	.	16ff\LL	.
16f\	.	16ee\	.
16d\JJ	.	16ff\JJ	.
*rep	*	*	*
16G#\LL	.	16ee\LL	.
16d\	.	16dd\	.
16f\	.	16cc\	.
16d\JJ	.	16b\JJ	.
*Xrep	*	*	*
=92	=92	=92	=92
16A\LL	.	16r	.
16c\	.	16ee\LL	.
16e\	.	16dd#X\	.
16c\JJ	.	16ee\JJ	.
*rep	*	*	*
16A\LL	.	16ddn\LL	.
16c\	.	16cc\	.
16e\	.	16b\	.
16c\JJ	.	16a\JJ	.
*Xrep	*	*	*
=93	=93	=93	=93
16B\LL	.	16r	.
16d\	.	16ff\LL	.
16f\	.	16ee\	.
16d\JJ	.	16ff\JJ	.
*rep	*	*	*
16B\LL	.	16ee\LL	.
16d\	.	16dd\	.
16f\	.	16cc\	.
16d\JJ	.	16b\JJ	.
*Xrep	*	*	*
=94	=94	=94	=94
16A\LL	.	16r	.
16c\	.	16ee\LL	.
16e\	.	16dd#X\	.
16c\JJ	.	16ee\JJ	.
16E\LL	.	16r	.
16B\	.	16ee\LL	.
16e\	.	16dd#\	.
16B\JJ	.	16ee\JJ	.
=95	=95	=95	=95
16A\LL	.	16a\LL	.
16c\	.	16cc\	.
16e\	.	16ee\	.
16c\JJ	.	16cc\JJ	.
8A\	.	8a/	.
8r	.	8r	.
!LO:PB:g=original	!	!LO:PB:g=original	!
=96:|!;	=96:|!	=96:|!;	=96:|!
*M2/4	*	*M2/4	*
*>K	*	*>K	*
16qqAA/LL	.	.	.
16qqC/	.	.	.
!	!	!LO:TX:a:t=Var&colon; 6&colon;	!
16qqE/JJ	.	.	.
8A'\L	.	8cc\L 8aa	.
8A'\	.	8dd\J 8bb	.
8A'\	.	8dd#X\L 8bb	.
8A'\J	.	8ee\J 8ccc	.
=97	=97	=97	=97
16qqAA/LL	.	.	.
16qqC/	.	.	.
16qqE/JJ	.	.	.
8A'\L	.	8cc\L 8aa	.
8A'\	.	8dd\ 8bb	.
8A'\	.	8dd#X\ 8bb	.
8A'\J	.	8ee\J 8ccc	.
=98	=98	=98	=98
16qqEE/LL	.	.	.
16qqGG#X/	.	.	.
16qqBB/JJ	.	.	.
8E\L	.	8ee\L	.
8E\J	.	16ddd#X\L	.
.	.	16eee\JJ	.
16qqEE/LL	.	.	.
16qqGG#/	.	.	.
!	!	!LO:TX:t=P:problem=mixed beam	!
16qqBB/JJ	.	.	.
8E\L	.	8e/L	.
8E\J	.	16dd#X\L	.
.	.	16ee\JJ	.
=99	=99	=99	=99
16qqAA/LL	.	.	.
16qqC/	.	.	.
16qqE/JJ	.	.	.
8A\L	.	16aa\LL	.
.	.	16gg#X\	.
8A\	.	16aa\	.
.	.	16bb\JJ	.
8A\	.	8aa\L	.
8A\J	.	8ee\J	.
=100	=100	=100	=100
*tremolo	*	*	*
16qqAA/LL	.	.	.
16qqC/	.	.	.
16qqE/JJ	.	.	.
*tremolo	*	*	*
8A\L	.	8cc\L 8aa	.
8A\	.	8dd\ 8bb	.
8A\	.	8dd#X\ 8bb	.
8A\J	.	8ee\J 8ccc	.
*Xtremolo	*	*	*
=101	=101	=101	=101
16qqAA/LL	.	.	.
16qqC/	.	.	.
16qqE/JJ	.	.	.
*tremolo	*	*	*
8A\L	.	8cc\L 8aa	.
8A\	.	8dd\ 8bb	.
8A\	.	8dd\ 8bb	.
8A\J	.	8ee\J 8ccc	.
*Xtremolo	*	*	*
=102	=102	=102	=102
16qqEE/LL	.	.	.
16qqGG#X/	.	.	.
16qqBB/JJ	.	.	.
8E\L	.	8ee\L	.
8E\J	.	16ddd#X\L	.
.	.	16eee\JJ	.
16qqEE/LL	.	.	.
16qqGG#/	.	.	.
!	!	!LO:TX:t=P:problem=mixed beam	!
16qqBB/JJ	.	.	.
8E\L	.	8e/L	.
8E\J	.	16dd#X\L	.
.	.	16ee\JJ	.
=103	=103	=103	=103
16qqAA/LL	.	.	.
16qqC/	.	.	.
16qqE/JJ	.	.	.
4A\	.	4a\ 4aa	.
4r	.	4r	.
=104:|!|:	=104:|!|:	=104:|!|:	=104:|!|:
*>L	*	*>L	*
!	!LO:DY:b:t=fp&colon;	!	!
16qqC/LL	fp	.	.
16qqE/	.	.	.
16qqG/JJ	.	.	.
*tremolo	*	*	*
8c\L	.	8ee\L 8ccc	.
8c\	.	8ff\J 8ddd	.
!	!	!	!LO:DY:b:t=f&colon;
8c\	.	8ff#X\L 8ddd#X	f
8c\J	.	8gg\J 8eee	.
*Xtremolo	*	*	*
=105	=105	=105	=105
!	!LO:DY:b:t=fp&colon;	!	!
16qqC/LL	fp	.	.
16qqE/	.	.	.
16qqG/JJ	.	.	.
*tremolo	*	*	*
8c\L	.	8ee\L 8ccc	.
8c\	.	8ff\J 8ddd	.
!	!	!	!LO:DY:b:t=f.
8c\	.	8ff#X\L 8ddd#X	f
8c\J	.	8gg\J 8eee	.
*Xtremolo	*	*	*
=106	=106	=106	=106
!	!LO:DY:b:t=fp&colon;	!	!
16qqGG/LL	fp	.	.
16qqBB/	.	.	.
16qqD/JJ	.	.	.
*tremolo	*	*	*
8G\L	.	8ffn\L 8dddn	.
8G\	.	8ff\ 8ddd	.
8G\	.	8gg\ 8eee	.
8G\J	.	8ff\J 8ddd	.
*Xtremolo	*	*	*
=107	=107	=107	=107
16qqGG#X/LL	.	.	.
16qqBB/	.	.	.
16qqD/JJ	.	.	.
8G\L	.	8ee\L 8ccc	.
8G\J	.	8dd\ 8bb	.
16qqGG#/LL	.	.	.
16qqBB/	.	.	.
16qqD/JJ	.	.	.
8G\L	.	8cc\ 8aa	.
8G\J	.	8b\J 8gg#X	.
=108	=108	=108	=108
16qqAA/LL	.	.	.
16qqC/	.	.	.
16qqE/JJ	.	.	.
*tremolo	*	*	*
8A\L	.	8cc\L 8aa	.
8A\	.	8dd\ 8bb	.
8A\	.	8dd#X\ 8bb	.
8A\J	.	8ee\J 8ccc	.
*Xtremolo	*	*	*
=109	=109	=109	=109
16qqAA/LL	.	.	.
16qqC/	.	.	.
16qqE/JJ	.	.	.
*tremolo	*	*	*
8A\L	.	8cc\L 8aa	.
8A\	.	8dd\J 8bb	.
8A\	.	8dd#X\L 8bb	.
8A\J	.	8ee\J 8ccc	.
*Xtremolo	*	*	*
*Xtremolo	*	*	*
=110	=110	=110	=110
16qqEE/LL	.	.	.
16qqGG#X/	.	.	.
16qqBB/JJ	.	.	.
8E\L	.	8ee\L	.
8E\J	.	16ddd#X\L	.
.	.	16eee\JJ	.
16qqEE/LL	.	.	.
16qqGG#/	.	.	.
16qqBB/JJ	.	.	.
8E\L	.	8e/L	.
8E\J	.	16dd#X/L	.
.	.	16ee/JJ	.
=111	=111	=111	=111
16qqAA/LL	.	.	.
16qqC/	.	.	.
16qqE/JJ	.	.	.
4A\	.	4a\ 4aa	.
4r	.	4r	.
!LO:LB:g=original	!	!LO:LB:g=original	!
=112:|!;	=112:|!	=112:|!;	=112:|!
*M2/4	*	*M2/4	*
*>M	*	*>M	*
!	!	!LO:TX:b:t=dolce	!
!	!	!LO:TX:a:t=Var&colon; 7&colon; Un poco andante	!
8A\L	.	4aa\	.
8e\J	.	.	.
.	.	16qqgg\LL	.
.	.	16qqaa\	.
.	.	16qqgg#X\JJ	.
8c\L	.	16.aa\LL	.
.	.	32ee\K	.
8e\J	.	16.bb\	.
.	.	32aa\JJk	.
=113	=113	=113	=113
8A\L	.	4.eee\	.
8e\	.	.	.
8c\	.	.	.
8e\J	.	8ccc\	.
=114	=114	=114	=114
8B\L	.	16bb\	.
.	.	16ddd\LL	.
8f\J	.	16fff\	.
.	.	16ddd\JJ	.
8d\L	.	16bb\LL	.
.	.	16ddd\	.
8f\J	.	16gg#X\	.
.	.	16bb\JJ	.
=115	=115	=115	=115
8E\L	.	16ff\LL	.
.	.	16gg#X\JJ	.
*	*	*clefF4	*
8B\J 8d	.	16D\LL	.
.	.	16F\JJ	.
8E\L	.	16BB/LL	.
.	.	16D/JJ	.
8B\J 8d	.	16GG#X/LL	.
.	.	16BB/JJ	.
=116	=116	=116	=116
8A\L	.	4AA/	.
8e\J	.	.	.
.	.	16qqBB/LL	.
.	.	16qqAA/	.
.	.	16qqGG#X/JJ	.
8c\L	.	16.AA/LL	.
.	.	32EE/K	.
8e\J	.	16.C/	.
.	.	32AA/JJk	.
=117	=117	=117	=117
8A\L	.	4E/	.
8e\	.	.	.
8c\	.	16E/LL	.
.	.	16C/	.
8e\J	.	16BB/	.
.	.	16AA/JJ	.
=118	=118	=118	=118
8B\L	.	16GG#X/LL	.
.	.	16BB/JJ	.
8d\J 8e	.	(16D#X\LL	.
.	.	16E\JJ)	.
8E\L	.	16EE/LL	.
.	.	16FF#X/JJ	.
8B\J 8d	.	16GG#/LL	.
.	.	16EE/JJ	.
=119	=119	=119	=119
4A\ 4c	.	4AA/	.
4r	.	4r	.
!LO:LB:g=original	!	!LO:LB:g=original	!
=120:|!|:;	=120:|!|:	=120:|!|:;	=120:|!|:
*clefG2	*	*clefG2	*
*>N	*	*>N	*
8c/L	.	4cc\	.
8g/J	.	.	.
.	.	16qqdd/LL	.
.	.	16qqcc/	.
.	.	16qqb/JJ	.
8e/L	.	16.cc\LL	.
.	.	32g\K	.
8g/J	.	16.ee\	.
.	.	32cc\JJk	.
=121	=121	=121	=121
8c/L	.	4.gg\	.
8g/	.	.	.
8e/	.	.	.
8g/J	.	8ee\	.
=122	=122	=122	=122
*clefF4	*	*	*
8G\L	.	16dd\	.
.	.	16ddd\LL	.
8f\J	.	16ddd\	.
.	.	16ddd\JJ	.
8d\L	.	16bb\LL	.
.	.	16ddd\	.
8f\J	.	16gg#X\	.
.	.	16bb\JJ	.
=123	=123	=123	=123
8G#X\L	.	16ff\LL	.
.	.	16gg#X\JJ	.
*	*	*clefF4	*
8f\J	.	16D\LL	.
.	.	16F\JJ	.
8d\L	.	16BB/LL	.
.	.	16D/JJ	.
8f\J	.	16GG#X/LL	.
.	.	16BB/JJ	.
=124	=124	=124	=124
8A\L	.	4AA/	.
8e\J	.	.	.
.	.	16qqBB/LL	.
.	.	16qqAA/	.
.	.	16qqGG#X/JJ	.
8c\L	.	16.AA/LL	.
.	.	32EE/K	.
8e\J	.	16.C/	.
.	.	32AA/JJk	.
=125	=125	=125	=125
8A\L	.	4E/	.
8e\	.	.	.
8c\	.	16E/LL	.
.	.	16C/	.
8e\J	.	16BB/	.
.	.	16AA/JJ	.
=126	=126	=126	=126
8B\L	.	16GG#X/LL	.
.	.	16BB/JJ	.
8d\J 8e	.	16D#X\LL	.
.	.	16E\JJ	.
8E\L	.	16EE/LL	.
.	.	16FF#X/JJ	.
8B\J 8d	.	16GG#/LL	.
.	.	16EE/JJ	.
=127	=127	=127	=127
4A\ 4c	.	4AA/	.
4r	.	4r	.
!LO:PB:g=original	!	!LO:PB:g=original	!
=128:|!;	=128:|!	=128:|!;	=128:|!
*	*	*clefG2	*
*M2/4	*	*M2/4	*
*>O	*	*>O	*
!	!	!LO:TX:a:t=Var&colon; 8&colon; Tempo 1mo&colon;	!
8AAA/ 8AA	.	24a/LL	.
.	.	24e/	.
.	.	24c/JJ	.
8r	.	24A/LL	.
.	.	24c/	.
.	.	24e/JJ	.
*15ma	*	*	*
!LO:TX:a:t=P:problem= przeplatanka rąk-partia zapisana na górnej pięciolinii	!	!	!
8aa\L 8ccc	.	24a/LL	.
.	.	24e/	.
.	.	24c/JJ	.
8bb\J 8ddd	.	24A/LL	.
.	.	24c/	.
.	.	24e/JJ	.
*X15ma	*	*	*
=129	=129	=129	=129
8aa\ 8eee	.	24a/LL	.
.	.	24e/	.
.	.	24c/JJ	.
8AAA/L 8AA	.	24A/LL	.
.	.	24c/	.
.	.	24e/JJ	.
8CC/ 8C	.	24a/LL	.
.	.	24e/	.
.	.	24c/JJ	.
8AAA/J 8AA	.	24A/LL	.
.	.	24c/	.
.	.	24e/JJ	.
=130	=130	=130	=130
8EE/ 8E	.	24g#X/LL	.
.	.	24e/	.
.	.	24d/JJ	.
8r	.	24B/LL	.
.	.	24d/	.
.	.	24e/JJ	.
*15ma	*	*	*
!LO:TX:a:t=P:problem= przeplatanka rąk-partia zapisana na górnej pięciolinii	!	!	!
8gg#X\L 8bb	.	24g#/LL	.
.	.	24e/	.
.	.	24d/JJ	.
8aa\J 8ccc	.	24B/LL	.
.	.	24d/	.
.	.	24e/JJ	.
*X15ma	*	*	*
=131	=131	=131	=131
8bb\ 8ddd	.	24g#X/LL	.
.	.	24e/	.
.	.	24d/JJ	.
8EE/L 8E	.	24B/LL	.
.	.	24d/	.
.	.	24e/JJ	.
8GG#X/ 8G#X	.	24g#/LL	.
.	.	24e/	.
.	.	24d/JJ	.
8EE/J 8E	.	24B/LL	.
.	.	24d/	.
.	.	24e/JJ	.
!LO:LB:g=original	!	!LO:LB:g=original	!
=132	=132	=132	=132
8AA/ 8A	.	24a/LL	.
.	.	24e/	.
.	.	24c/JJ	.
8r	.	24A/LL	.
.	.	24c/	.
.	.	24e/JJ	.
*15ma	*	*	*
!LO:TX:a:t=P:problem= przeplatanka rąk-partia zapisana na górnej pięciolinii	!	!	!
8aa\L 8ccc	.	24a/LL	.
.	.	24e/	.
.	.	24c/JJ	.
8bb\J 8ddd	.	24A/LL	.
.	.	24c/	.
.	.	24e/JJ	.
*X15ma	*	*	*
=133	=133	=133	=133
8aa\ 8eee	.	24a/LL	.
.	.	24e/	.
.	.	24c/JJ	.
8AAA/L 8AA	.	24A/LL	.
.	.	24c/	.
.	.	24e/JJ	.
8CC/ 8C	.	24a/LL	.
.	.	24e/	.
.	.	24c/JJ	.
8AAA/J 8AA	.	24A/LL	.
.	.	24c/	.
.	.	24e/JJ	.
=134	=134	=134	=134
8DD/ 8D	.	24d/LL	.
.	.	24f/	.
.	.	24b/JJ	.
*15ma	*	*	*
!LO:TX:a:t=P:problem= przeplatanka rąk-partia zapisana na górnej pięciolinii	!	!	!
8bb\L 8ddd	.	24dd\LL	.
.	.	24b\	.
.	.	24f\JJ	.
8aa\ 8ccc	.	24e\LL	.
.	.	24a\	.
.	.	24cc\JJ	.
8gg#X\J 8bb	.	24e\LL	.
.	.	24g#X\	.
.	.	24b\JJ	.
=135	=135	=135	=135
*Xtuplet	*	*	*
24aa\	.	24a/LL	.
*X15ma	*	*	*
24E\LL	.	24e/	.
24D\JJ	.	24d/JJ	.
24C\LL	.	24c/LL	.
24D\	.	24d/	.
24E\JJ	.	24e/JJ	.
8AA/	.	8A/	.
8r	.	8r	.
=136:|!|:;	=136:|!|:	=136:|!|:;	=136:|!|:
*>P	*	*>P	*
8AAA/ 8AA	.	24cc\LL	.
.	.	24g\	.
.	.	24e\JJ	.
8r	.	24c\LL	.
.	.	24e\	.
.	.	24g\JJ	.
*15ma	*	*	*
!LO:TX:a:t=P:problem= przeplatanka rąk-partia zapisana na górnej pięciolinii	!	!	!
8ee\L 8ccc	.	24cc\LL	.
.	.	24g\	.
.	.	24e\JJ	.
8ff\J 8ddd	.	24c\LL	.
.	.	24e\	.
.	.	24g\JJ	.
*X15ma	*	*	*
=137	=137	=137	=137
8gg\ 8eee	.	24cc\LL	.
.	.	24g\	.
.	.	24e\JJ	.
8CC/L 8C	.	24c\LL	.
.	.	24e\	.
.	.	24g\JJ	.
8EE/ 8E	.	24cc\LL	.
.	.	24g\	.
.	.	24e\JJ	.
8CC/J 8C	.	24c\LL	.
.	.	24e\	.
.	.	24g\JJ	.
=138	=138	=138	=138
8GG/ 8G	.	24b\LL	.
.	.	24g\	.
.	.	24f\JJ	.
8r	.	24d\LL	.
.	.	24f\	.
.	.	24g\JJ	.
*15ma	*	*	*
!LO:TX:a:t=P:problem= przeplatanka rąk-partia zapisana na górnej pięciolinii	!	!	!
8bb\L 8ddd	.	24b\LL	.
.	.	24g\	.
.	.	24f\JJ	.
8aa\J 8ccc	.	24d\LL	.
.	.	24f\	.
.	.	24g\JJ	.
*X15ma	*	*	*
=139	=139	=139	=139
8ddd\ 8fff	.	24b\LL	.
.	.	24g#X\	.
.	.	24f\JJ	.
8FF/L 8F	.	24d\LL	.
.	.	24f\	.
.	.	24g#\JJ	.
8EE/ 8E	.	24b\LL	.
.	.	24g#\	.
.	.	24f\JJ	.
8DD/J 8D	.	24d\LL	.
.	.	24f\	.
.	.	24g#\JJ	.
!LO:LB:g=original	!	!LO:LB:g=original	!
=140	=140	=140	=140
8AAA/ 8AA	.	24a/LL	.
.	.	24e/	.
.	.	24c/JJ	.
8r	.	24A/LL	.
.	.	24c/	.
.	.	24e/JJ	.
*15ma	*	*	*
!LO:TX:a:t=P:problem= przeplatanka rąk-partia zapisana na górnej pięciolinii	!	!	!
8gg\L 8aa	.	24a/LL	.
.	.	24e/	.
.	.	24c/JJ	.
8bb\J 8ddd	.	24A/LL	.
.	.	24c/	.
.	.	24e/JJ	.
*X15ma	*	*	*
=141	=141	=141	=141
8aa\ 8eee	.	24a/LL	.
.	.	24e/	.
.	.	24c/JJ	.
8AAA/L 8AA	.	24A/LL	.
.	.	24c/	.
.	.	24e/JJ	.
8CC/ 8C	.	24a/LL	.
.	.	24e/	.
.	.	24c/JJ	.
8AAA/J 8AA	.	24A/LL	.
.	.	24c/	.
.	.	24e/JJ	.
=142	=142	=142	=142
8DD/ 8D	.	24d\LL	.
.	.	24f\	.
.	.	24b\JJ	.
*15ma	*	*	*
!LO:TX:a:t=P:problem= przeplatanka rąk-partia zapisana na górnej pięciolinii	!	!	!
8bb\L 8ddd	.	24dd\LL	.
.	.	24b\	.
.	.	24f\JJ	.
8aa\ 8ccc	.	24e\LL	.
.	.	24a\	.
.	.	24cc\JJ	.
8gg#X\J 8bb	.	24e\LL	.
.	.	24g#X\	.
.	.	24b\JJ	.
*X15ma	*	*	*
=143	=143	=143	=143
24aa\	.	24a/LL	.
24E\LL	.	24e/	.
24D\JJ	.	24d/JJ	.
24C\LL	.	24c/LL	.
24D\	.	24d/	.
24E\JJ	.	24e/JJ	.
8AA/	.	8A/	.
8r	.	8r	.
!LO:PB:g=original	!	!LO:PB:g=original	!
=144:|!;	=144:|!	=144:|!;	=144:|!
*M2/4	*	*M2/4	*
*>R	*	*>R	*
!	!	!LO:TX:a:t=Var&colon; 9&colon; Andan&colon; con Espreſsione	!
8A\L	.	4a/	.
8e\	.	.	.
.	.	16qqb/LL	.
.	.	16qqa/	.
.	.	16qqg/JJ	.
8e\	.	16a/LL	.
.	.	16b/	.
8e\J	.	16cc/	.
.	.	16dd/JJ	.
=145	=145	=145	=145
.	.	16qqdd#X/	.
8A\L	.	4ee\	.
8e\	.	.	.
.	.	16qqgg#X/	.
8e\	.	8.aa\L	.
8e\J	.	.	.
.	.	16bb\Jk	.
=146	=146	=146	=146
8A\L	.	16ccc\LL	.
.	.	16ee\	.
8e\J	.	16ff\	.
.	.	16ee\JJ	.
8e\L	.	16dd\LL	.
.	.	16cc\	.
8e\J	.	16b\	.
.	.	16a\JJ	.
=147	=147	=147	=147
!LO:TX:a:t=P:problem= [d f] zapisane na górnej pięciolinii	!	!	!
!LO:TX:a:t=P:problem= przekreślona nuta E	!	!LO:TX:a:t=P:problem= przekreślona nuta b	!
4E\ 4G 4d 4f	.	4g;\ 4b 4dd 4ff	.
!	!LO:DY:b:t=fp&colon;	!LO:TX:a:t=P:problem= pauza po pasażu przednutek	!
4E\ 4G 4B 4d	fp	16r	.
.	.	16qqdd/LL	.
.	.	16qqb/	.
.	.	16qqg#X/JJ	.
.	.	16qqf/LL	.
.	.	16qqd/	.
.	.	16qqB/	.
.	.	16qqG#X/JJ	.
.	.	16b\LL	.
.	.	16cc\	.
.	.	16dd\JJ	.
=148	=148	=148	=148
4A\ 4c 4e	.	8dd\L	.
.	.	16qqee/LL	.
.	.	16qqdd/JJ	.
.	.	16.cc\L	.
.	.	32ee\JJk	.
4C\ 4E 4A	.	8.a\L	.
.	.	16cc\Jk	.
=149	=149	=149	=149
2D\ 2F 2B-X	.	8b-X\L	.
.	.	16qqcc/LL	.
.	.	16qqb-/	.
.	.	16qqa/JJ	.
.	.	8cc\J	.
.	.	(8.dd\L	.
.	.	32ee\LL	.
.	.	32ff\JJJ)	.
=150	=150	=150	=150
.	.	16qqff/	.
16E\LL	.	8.a\L	.
16A\ 16c	.	.	.
16A\ 16c	.	.	.
16A\JJ 16c	.	16cc\Jk	.
16E\LL	.	8b\L	.
16B\ 16d	.	.	.
16B\ 16d	.	16.ee\L	.
16B\JJ 16d	.	.	.
.	.	32g#X\JJk	.
!LO:LB:g=original	!	!LO:LB:g=original	!
=151||	=151||	=151||	=151||
!LO:TX:t=P:problem=mixed beam	!	!LO:TX:a:t=1mo	!LO:DY:b:t=fp&colon;
8A\L	.	4d/ 4g 4b	fp
8E\	.	.	.
8AA/J	.	8c/ 8e 8a	.
8r	.	8r	.
=152:|!;	=152:|!	=152:|!;	=152:|!
*>R1	*	*>R1	*
!LO:TX:t=P:problem=mixed beam	!	!LO:TX:a:t=2do	!
8A\L	.	4d/ 4g#X 4b	.
8E\	.	.	.
8AA/J	.	8c/ 8e 8a	.
8r	.	8r	.
=153!|:;	=153!|:	=153!|:;	=153!|:
*>S	*	*>S	*
8r	.	16.ee\LL	.
.	.	32ff\JJk	.
=154	=154	=154	=154
.	.	16qqff#X/	.
16C\LL	.	4gg\	.
16E\ 16G	.	.	.
16E\ 16G	.	.	.
16E\JJ 16G	.	.	.
*rep	*	*	*
.	.	16qqbb/	.
16C\LL	.	8.ccc\L	.
16E\ 16G	.	.	.
16E\ 16G	.	.	.
16E\JJ 16G	.	16ddd\Jk	.
*Xrep	*	*	*
=155	=155	=155	=155
*rep	*	*	*
.	.	16qqee/	.
16C\LL	.	16eee\LL	.
.	.	16qqdd/	.
16E\ 16G	.	16ddd\JJ	.
.	.	16qqcc/	.
16E\ 16G	.	16ccc\LL	.
.	.	16qqb/	.
16E\JJ 16G	.	16bb\JJ	.
.	.	16qqa/	.
*Xrep	*	*	*
*rep	*	*	*
16C\LL	.	16aa\LL	.
.	.	16qqg/	.
16E\ 16G	.	16gg\JJ	.
.	.	16qqf/	.
16E\ 16G	.	16ff\LL	.
.	.	16qqe/	.
16E\JJ 16G	.	16ee\JJ	.
*Xrep	*	*	*
=156	=156	=156	=156
.	.	16qqgg/LL	.
.	.	16qqbb/	.
!LO:TX:a:t=P: ligatura?:problem	!	!	!
!LO:TX:a:t=P:problem= [d f] zapisane na górnej pięciolinii	!	!	!
.	.	16qqddd/JJ	.
[>2G\ 2B 2d 2f	.	16fff\LL	.
.	.	32fff\L	.
.	.	32eee\JJJ	.
.	.	16ddd\LL	.
.	.	32ddd\L	.
.	.	32ccc\JJJ	.
.	.	16bb\LL	.
.	.	32bb\L	.
.	.	32ccc\JJJ	.
.	.	16ddd\LL	.
.	.	32ddd\L	.
.	.	32ccc\JJJ	.
=157	=157	=157	=157
!LO:TX:a:t=P:problem= ligatura/ legato	!	!	!
!LO:TX:a:t=P:problem= [d f] zapisane na górnej pięciolinii	!	!	!
(2G\] 2B#X 2d 2f	.	16bb\LL	.
.	.	32bb\L	.
.	.	32aa\JJJ	.
.	.	16gg#X\LL	.
.	.	32gg#\L	.
.	.	32ff\JJJ	.
.	.	16ee\LL	.
.	.	32ee\L	.
.	.	32dd\JJJ	.
.	.	16cc\LL	.
.	.	32cc\L	.
.	.	32b\JJJ	.
!LO:LB:g=original	!	!LO:LB:g=original	!
=158	=158	=158	=158
8A\L)	.	4a/	.
8e\ 8c	.	.	.
.	.	16qqb/LL	.
.	.	16qqa/	.
.	.	16qqg/JJ	.
8e\ 8c	.	16a/LL	.
.	.	16b/	.
8e\J 8c	.	16cc/	.
.	.	16dd/JJ	.
=159	=159	=159	=159
*rep	*	*	*
.	.	16qqdd#X/	.
8A\L	.	4ee\	.
8e\ 8c	.	.	.
.	.	16qqgg#X/	.
8e\ 8c	.	8.aa\L	.
8e\J 8c	.	.	.
.	.	16bb\Jk	.
*Xrep	*	*	*
=160	=160	=160	=160
*rep	*	*	*
8A\L	.	16ccc\LL	.
.	.	16ee\	.
8e\ 8c	.	16ff\	.
.	.	16ee\JJ	.
8e\ 8c	.	16dd\LL	.
.	.	16cc\	.
8e\J 8c	.	16b\	.
.	.	16a\JJ	.
*Xrep	*	*	*
=161	=161	=161	=161
2D\ 2F 2B-X	.	8.b-X\L	.
.	.	16cc\Jk	.
.	.	8.dd\L	.
.	.	32ee\LL	.
.	.	32ff\JJJ	.
=162	=162	=162	=162
.	.	16qqff/	.
16E\LL	.	8.a/L	.
16A\ 16c	.	.	.
16A\ 16c	.	.	.
!	!	!LO:TX:a:t=1mo	!
16A\JJ 16c	.	16cc/Jk	.
16E\LL	.	8b\L	.
16B\ 16d	.	.	.
16B\ 16d	.	16.ee\L	.
16B\JJ 16d	.	.	.
.	.	32g#X\JJk	.
=163	=163	=163	=163
8A\L	.	4d/ 4g#X 4b	.
8E\J	.	.	.
8AA/	.	4c/ 4e 4a	.
8r	.	.	.
=164:|!;	=164:|!	=164:|!;	=164:|!
.	.	16qqff/	.
16E\LL	.	8.a/L	.
16A\ 16c	.	.	.
16A\ 16c	.	.	.
!	!	!LO:TX:a:t=2do	!
16A\JJ 16c	.	16cc/Jk	.
16E\LL	.	8b/L	.
16B\ 16d	.	.	.
16B\ 16d	.	16.ee/L	.
!LO:TX:b:t=Volti subito	!	!	!
16B\JJ 16d	.	.	.
.	.	32g#X/JJk	.
!LO:PB:g=original	!	!LO:PB:g=original	!
==165;	==165	==165;	==165
*M3/8	*	*M3/8	*
*>T	*	*>T	*
!	!	!LO:TX:a:t=Var&colon; 10&colon; Allemande Presto	!LO:DY:b:t=p&colon;
.	.	16qqb/	p
8A\L	.	16a/LL	.
.	.	16g#X/	.
8c\	.	16a/	.
.	.	16b/	.
8e\J	.	16cc/	.
.	.	16dd/JJ	.
=166	=166	=166	=166
8A\L	.	16dd#X\LL	.
.	.	16ee\	.
8c\	.	16ddn\	.
.	.	16cc\	.
8e\J	.	16b\	.
.	.	16a\JJ	.
=167	=167	=167	=167
8B\L	.	16g#X/LL	.
.	.	16a/	.
8d\	.	16b/	.
.	.	16e/	.
8e\J	.	16f#X/	.
.	.	16g#/JJ	.
=168	=168	=168	=168
8A\L	.	16a/LL	.
.	.	16g#X/	.
8c\	.	16a/	.
.	.	16b/	.
8e\J	.	16a/	.
.	.	16e/JJ	.
=169	=169	=169	=169
8A\L	.	16a/LL	.
.	.	16g#X/	.
8c\	.	16a/	.
.	.	16b/	.
8e\J	.	16cc/	.
.	.	16dd/JJ	.
=170	=170	=170	=170
8A\L	.	16dd#X\LL	.
.	.	16ee\	.
8c\	.	16ddn\	.
.	.	16cc\	.
8e\J	.	16b\	.
.	.	16a\JJ	.
=171	=171	=171	=171
8E\L	.	16g#X/LL	.
.	.	16a/	.
8B\	.	16b/	.
.	.	16g#/	.
8d\J	.	16e/	.
.	.	16g#/JJ	.
=172	=172	=172	=172
4A\ 4c	.	4a/	.
8r	.	8r	.
!LO:LB:g=original	!	!LO:LB:g=original	!
=173:|!|:;	=173:|!|:	=173:|!|:;	=173:|!|:
*>U	*	*>U	*
!	!	!	!LO:DY:b:t=p.
.	.	16qqdd/	p
8C\L	.	16cc\LL	.
.	.	16b\	.
8E\	.	16cc\	.
.	.	16dd\	.
8G\J	.	16ee\	.
.	.	16ff\JJ	.
=174	=174	=174	=174
8C\L	.	16ff#X\LL	.
.	.	16gg\	.
8E\	.	16ffn\	.
.	.	16ee\	.
8G\J	.	16dd\	.
.	.	16cc\JJ	.
=175	=175	=175	=175
8G\L	.	16b\LL	.
.	.	16dd\	.
8B\	.	16aa\	.
.	.	16gg\	.
8d\J	.	16ff\	.
.	.	16ee\JJ	.
=176	=176	=176	=176
8G#X\L	.	16dd\LL	.
.	.	16cc\	.
8B\	.	16b\	.
.	.	16a\	.
8d\J	.	16g#X\	.
.	.	16b\JJ	.
=177	=177	=177	=177
.	.	16qqb/	.
8A\L	f	16a/LL	.
.	.	16g#X/	.
8c\	.	16a/	.
.	.	16b/	.
8e\J	.	16cc/	.
.	.	16dd/JJ	.
=178	=178	=178	=178
8C\L 8E	.	16g#X/LL	.
.	.	16a/	.
8B\ 8d	.	16b/	.
.	.	16g#/	.
8B\J 8d	.	16e/	.
.	.	16g#/JJ	.
=179	=179	=179	=179
8A\ 8c	.	8a/	.
8r	.	8r	.
8r	.	8r	.
=180:|!	=180:|!	=180:|!	=180:|!
*>W	*	*>W	*
!	!	!LO:TX:b:t=Coda	!
8G\L	.	16b/LL	.
.	.	16cc/	.
8d\ 8f	.	16dd/	.
.	.	16b/	.
8d\J 8f	.	16g/	.
.	.	16b/JJ	.
=181	=181	=181	=181
8c\ 8e	.	8cc\	.
8r	.	8r	.
8r	.	8r	.
!LO:LB:g=original	!	!LO:LB:g=original	!
=182	=182	=182	=182
*clefG2	*	*	*
8B/L	.	16dd#X\LL	.
.	.	16ee\	.
8f#X/ 8a	.	16ff#X\	.
.	.	16dd#\	.
8f#/J 8a	.	16b\	.
.	.	16dd#\JJ	.
=183	=183	=183	=183
8e/ 8g	.	8ee\	.
8r	.	8r	.
8r	.	8r	.
=184	=184	=184	=184
8d/L	.	16ff#X\LL	.
.	.	16gg\	.
8a/ 8cc	.	16aa\	.
.	.	16ff#\	.
8a/J 8cc	.	16dd\	.
.	.	16ff#\JJ	.
=185	=185	=185	=185
8g/L	.	16gg\LL	.
.	.	16aa\	.
8b/	.	16bb\	.
.	.	16gg\	.
8e/J	.	16ee\	.
.	.	16gg\JJ	.
=186	=186	=186	=186
8B/L	.	16dd#X\LL	.
.	.	16ee\	.
8f#X/	.	16ff\	.
.	.	16dd#\	.
8a/J	.	16b\	.
.	.	16dd#\JJ	.
=187	=187	=187	=187
8e/L	.	16ee\LL	.
.	.	16ff#X\	.
8g/	.	16gg\	.
.	.	16ee\	.
8c/J	.	16cc\	.
.	.	16ee\JJ	.
*clefF4	*	*	*
=188	=188	=188	=188
8G\L	.	16b/LL	.
.	.	16cc/	.
8d\	.	16dd/	.
.	.	16g/	.
8f\J	.	16e/	.
.	.	16g/JJ	.
=189	=189	=189	=189
8c\L	.	16cc\LL	.
.	.	16dd\	.
8e\	.	16ee\	.
.	.	16cc\	.
8A\J	.	16a\	.
.	.	16cc\JJ	.
!LO:LB:g=original	!	!LO:LB:g=original	!
=190	=190	=190	=190
8E\L	.	16g#X/LL	.
.	.	16a/	.
8B\	.	16b/	.
.	.	16g#/	.
8d\J	.	16e/	.
.	.	16g#/JJ	.
=191	=191	=191	=191
8A\L	.	16a/LL	.
.	.	16b/	.
8c\ 8e	.	16cc/	.
.	.	16b/	.
8c\J 8e	.	16a/	.
.	.	16g#X/JJ	.
=192	=192	=192	=192
8F\L	.	16a/LL	.
.	.	16b/	.
8A\ 8c	.	16cc/	.
.	.	16b/	.
8A\J 8c	.	16a/	.
.	.	16g#X/JJ	.
=193	=193	=193	=193
8E\L	.	16a/LL	.
.	.	16b/	.
8A\ 8c	.	16cc/	.
.	.	16b/	.
8A\J 8c	.	16a/	.
.	.	16g#X/JJ	.
=194	=194	=194	=194
8D#X\L	.	16a/LL	.
.	.	16b/	.
8A\ 8c	.	16cc/	.
.	.	16b/	.
8A\J 8c	.	16cc/	.
.	.	16b/JJ	.
=195	=195	=195	=195
*yyM3/4	*	*yyM3/4	*
!LO:TX:a:t=P:problem=fermata na dole	!	!	!
4D#X\; 4F 4G#X 4B	.	4d;/ 4f 4g#X 4b	.
.	.	16qqf/LL	.
.	.	16qqd/JJ	.
.	.	8qqg#/L	.
.	.	8qqf/J	.
.	.	8qqb/L	.
.	.	8qqg#/J	.
.	.	8qqdd\L	.
.	.	8qqb\	.
.	.	8qqff\	.
.	.	8qqdd\J	.
.	.	8qqgg#X\L	.
.	.	8qqff\	.
.	.	8qqbb\	.
.	.	8qqgg#\J	.
.	.	8qqddd\L	.
!LO:TX:a:t=P:problem= [f] zapisane na górnej pięciolinii	!	!	!
.	.	8qqbb\J	.
!LO:TX:a:t=P:problem=fermata na dole	!	!	!
2G#;\ 2B 2f	.	2fff;\	.
!LO:PB:g=original	!	!LO:PB:g=original	!
=196	=196	=196	=196
*yyM2/4	*	*yyM2/4	*
.	.	8qqbb/L	.
.	.	8qqddd/	.
.	.	8qqgg#X/	.
.	.	8qqbb/	.
.	.	8qqff/	.
.	.	8qqgg#/	.
.	.	8qqdd/	.
.	.	8qqff/	.
.	.	8qqb/	.
.	.	8qqdd/	.
.	.	8qqg#X/	.
.	.	8qqb/	.
.	.	8qqf/	.
.	.	8qqg#/	.
.	.	8qqd/	.
.	.	8qqf/	.
.	.	8qqB/	.
.	.	8qqd/	.
.	.	8qqG#X/	.
.	.	8qqB/	.
.	.	8qqF/	.
.	.	8qqG#/	.
.	.	8qqD/	.
.	.	8qqF/	.
.	.	8qqD/	.
.	.	8qqF/	.
.	.	8qqBB/	.
.	.	8qqD/	.
!	!	!LO:TX:a:t=P:problem= brak kresek taktowych do Adagio	!
!	!	!LO:TX:a:t=P:problem= przebieg od B zapisany na dolnej pięciolinii w kluczu basowym	!
.	.	8qqGG#X/J	.
2ryy	.	2CC;/ 2EE 2AA	.
=197	=197	=197	=197
*yyM2/8	*	*yyM2/8	*
24BB/LL	.	4r	.
24AA/	.	.	.
24GG/JJ	.	.	.
32qqAA/LLL	.	.	.
32qqAA#X/	.	.	.
32qqBB/	.	.	.
32qqC/	.	.	.
32qqC#X/	.	.	.
32qqD/	.	.	.
32qqD#X/	.	.	.
32qqE/	.	.	.
32qqF/	.	.	.
32qqF#X/	.	.	.
32qqG/	.	.	.
32qqG#X/	.	.	.
32qqA/	.	.	.
32qqB-X/	.	.	.
32qqBn/JJJ	.	.	.
8ryy	.	.	.
=198	=198	=198	=198
*clefG2	*	*	*
32qqc/LLL	.	.	.
32qqc#X/	.	.	.
32qqd/	.	.	.
32qqd#X/	.	.	.
32qqe/	.	.	.
32qqf/	.	.	.
32qqf#X/	.	.	.
32qqg/	.	.	.
32qqg#X/	.	.	.
32qqa/	.	.	.
32qqb-X/	.	.	.
32qqbn/	.	.	.
32qqcc/JJJ	.	.	.
32qqcc#X\LLL	.	.	.
32qqdd\	.	.	.
32qqee\	.	.	.
32qqff\	.	.	.
32qqff#X\	.	.	.
32qqgg\	.	.	.
32qqgg#X\	.	.	.
32qqaa\	.	.	.
32qqaa#X\	.	.	.
32qqbb\	.	.	.
32qqccc\	.	.	.
32qqddd\	.	.	.
32qqddd#X\JJJ	.	.	.
4eee;;\	.	8.ryy	.
!	!	!LO:TX:a:t=Adagio	!
.	.	16a/	.
*clefF4	*	*	*
=199	=199	=199	=199
*yyM2/4	*	*yyM2/4	*
2D\ 2F 2B-X	.	8.b-X\L	.
.	.	16cc\Jk	.
.	.	8.dd\L	.
.	.	32ee\LL	.
.	.	32ff\JJJ	.
=200	=200	=200	=200
.	.	16qqff/	.
8E\L	.	8.a/L	.
8A\J 8c	.	.	.
.	.	16cc/Jk	.
8E\L	.	8b/L	.
8d\J	.	16.ee/L	.
.	.	32g#X/JJk	.
=201	=201	=201	=201
!LO:TX:t=P:problem=mixed beam	!	!	!
8A\L	.	4d/ 4g#X 4b	.
8E\	.	.	.
8AA/J	.	8c/ 8e 8a	.
8r	.	8r	.
==;	==	==;	==
*-	*-	*-	*-
!!!system-decoration: [(g1)]
!!!RDF**kern: >= above
!!!RDF**kern: <= below
!!!ENC: Anna Matuszewska
!!!END: 2020-11-22
!!!ENC: Marta Chmielewska
!!!END: 2020-06-10
